X: 359
T:The Gooch
R:Reel
C:Peter Holmes
Z:Andrew Le Blanc
M:4/4
L:1/8
K:D
A,B,||:DCDE DB,A,B,|DCDE D2FG|Adcd BAGF|EFGA BAGF|
~E2EF GABG|dcde dAFD|DEFG Adcd|1 AFEF D2A,B,:|2 AFEF D4|
||fedf gfed|(3efg fa gfed|afed bagf|edcB AGFE|
Ddcd fdcd|gddd addd|bagf edcB|AGFE D4:||
<end>
<start>
